src/travel-places/transport-ground/1F6A5.svg

<svg id="emoji" viewBox="0 0 72 72" xmlns="http://www.w3.org/2000/svg">
  <g id="grid">
    <path fill="#b3b3b3" d="M68,4V68H4V4H68m4-4H0V72H72V0Z"/>
    <path fill="none" stroke="#00a5ff" stroke-miterlimit="10" stroke-width="0.1" d="M12.923,10.9583H59.0769A1.9231,1.9231,0,0,1,61,12.8814V59.0352a1.9231,1.9231,0,0,1-1.9231,1.9231H12.9231A1.9231,1.9231,0,0,1,11,59.0352V12.8813A1.923,1.923,0,0,1,12.923,10.9583Z"/>
    <rect x="16" y="4" rx="2.2537" width="40" height="64" fill="none" stroke="#00a5ff" stroke-miterlimit="10" stroke-width="0.1"/>
    <rect x="16" y="4" rx="2.2537" width="40" height="64" transform="translate(72) rotate(90)" fill="none" stroke="#00a5ff" stroke-miterlimit="10" stroke-width="0.1"/>
    <circle cx="36" cy="36" r="29" fill="none" stroke="#00a5ff" stroke-miterlimit="10" stroke-width="0.1"/>
  </g>
  <g id="color">
    <path fill="#d0cfce" stroke="none" stroke-miterlimit="10" d="M54.09,46.91h-36c-3.85,0-7-3.15-7-7v-8c0-3.85,3.15-7,7-7h36 c3.85,0,7,3.15,7,7v8C61.09,43.76,57.94,46.91,54.09,46.91z"/>
    <circle cx="21.6177" cy="35.91" r="5.0001" fill="#b1cc33" stroke="none" stroke-miterlimit="10"/>
    <circle cx="35.6177" cy="35.91" r="5.0001" fill="#f4aa41" stroke="none" stroke-miterlimit="10"/>
    <circle cx="50.6177" cy="35.91" r="5.0001" fill="#ea5a47" stroke="none" stroke-miterlimit="10"/>
  </g>
  <g id="hair"/>
  <g id="skin"/>
  <g id="skin-shadow"/>
  <g id="line">
    <path fill="none" stroke="#000000" stroke-miterlimit="10" d="M54.09,46.91h-36c-3.85,0-7-3.15-7-7v-8c0-3.85,3.15-7,7-7h36 c3.85,0,7,3.15,7,7v8C61.09,43.76,57.94,46.91,54.09,46.91z"/>
    <circle cx="21.6177" cy="35.91" r="5.0001" fill="none" stroke="#000000" stroke-miterlimit="10"/>
    <circle cx="35.6177" cy="35.91" r="5.0001" fill="none" stroke="#000000" stroke-miterlimit="10"/>
    <circle cx="50.6177" cy="35.91" r="5.0001" fill="none" stroke="#000000" stroke-miterlimit="10"/>
    <path fill="none" stroke="#000000" stroke-linecap="round" stroke-linejoin="round" stroke-miterlimit="10" stroke-width="2" d="M53.91,46.91h-36c-3.85,0-7-3.15-7-7v-8c0-3.85,3.15-7,7-7h36c3.85,0,7,3.15,7,7v8C60.91,43.76,57.76,46.91,53.91,46.91z"/>
    <circle cx="21.4377" cy="35.91" r="5.0001" fill="none" stroke="#000000" stroke-linecap="round" stroke-linejoin="round" stroke-miterlimit="10" stroke-width="2"/>
    <circle cx="35.4377" cy="35.91" r="5.0001" fill="none" stroke="#000000" stroke-linecap="round" stroke-linejoin="round" stroke-miterlimit="10" stroke-width="2"/>
    <circle cx="50.4377" cy="35.91" r="5.0001" fill="none" stroke="#000000" stroke-linecap="round" stroke-linejoin="round" stroke-miterlimit="10" stroke-width="2"/>
  </g>
</svg>

<svg viewBox="0 0 72 72" xmlns="http://www.w3.org/2000/svg"><path fill="#b3b3b3" d="M68 4v64H4V4h64m4-4H0v72h72V0z"/><path fill="none" stroke="#00a5ff" stroke-miterlimit="10" stroke-width=".1" d="M12.923 10.958h46.154A1.923 1.923 0 0161 12.881v46.154a1.923 1.923 0 01-1.923 1.923H12.923A1.923 1.923 0 0111 59.035V12.881a1.923 1.923 0 011.923-1.923z"/><rect x="16" y="4" rx="2.254" width="40" height="64" fill="none" stroke="#00a5ff" stroke-miterlimit="10" stroke-width=".1"/><rect x="16" y="4" rx="2.254" width="40" height="64" transform="rotate(90 36 36)" fill="none" stroke="#00a5ff" stroke-miterlimit="10" stroke-width=".1"/><circle cx="36" cy="36" r="29" fill="none" stroke="#00a5ff" stroke-miterlimit="10" stroke-width=".1"/><g stroke-linecap="round" stroke-miterlimit="10" stroke-width="6" stroke="#fff" fill="none" stroke-linejoin="round"><path d="M54.09 46.91h-36c-3.85 0-7-3.15-7-7v-8c0-3.85 3.15-7 7-7h36c3.85 0 7 3.15 7 7v8c0 3.85-3.15 7-7 7z"/><circle cx="21.618" cy="35.91" r="5"/><circle cx="35.618" cy="35.91" r="5"/><circle cx="50.618" cy="35.91" r="5"/><path d="M53.91 46.91h-36c-3.85 0-7-3.15-7-7v-8c0-3.85 3.15-7 7-7h36c3.85 0 7 3.15 7 7v8c0 3.85-3.15 7-7 7z"/><circle cx="21.438" cy="35.91" r="5"/><circle cx="35.438" cy="35.91" r="5"/><circle cx="50.438" cy="35.91" r="5"/></g><path fill="#d0cfce" d="M54.09 46.91h-36c-3.85 0-7-3.15-7-7v-8c0-3.85 3.15-7 7-7h36c3.85 0 7 3.15 7 7v8c0 3.85-3.15 7-7 7z"/><circle cx="21.618" cy="35.91" r="5" fill="#b1cc33"/><circle cx="35.618" cy="35.91" r="5" fill="#f4aa41"/><circle cx="50.618" cy="35.91" r="5" fill="#ea5a47"/><g fill="none" stroke="#000" stroke-miterlimit="10"><path d="M54.09 46.91h-36c-3.85 0-7-3.15-7-7v-8c0-3.85 3.15-7 7-7h36c3.85 0 7 3.15 7 7v8c0 3.85-3.15 7-7 7z"/><circle cx="21.618" cy="35.91" r="5"/><circle cx="35.618" cy="35.91" r="5"/><circle cx="50.618" cy="35.91" r="5"/><path stroke-linecap="round" stroke-linejoin="round" stroke-width="2" d="M53.91 46.91h-36c-3.85 0-7-3.15-7-7v-8c0-3.85 3.15-7 7-7h36c3.85 0 7 3.15 7 7v8c0 3.85-3.15 7-7 7z"/><circle cx="21.438" cy="35.91" r="5" stroke-linecap="round" stroke-linejoin="round" stroke-width="2"/><circle cx="35.438" cy="35.91" r="5" stroke-linecap="round" stroke-linejoin="round" stroke-width="2"/><circle cx="50.438" cy="35.91" r="5" stroke-linecap="round" stroke-linejoin="round" stroke-width="2"/></g></svg>
